static/images/mobile/copyright/wikipedia-wordmark-sd.svg

<?xml version="1.0" encoding="UTF-8"?>
<svg xmlns="http://www.w3.org/2000/svg" width="109" height="28" viewBox="0 0 109 28">
	<title>
		sd-wordmark
	</title>
	<g id="Page-1" fill="none" fill-rule="evenodd" stroke="none" stroke-width="1">
		<path id="sd-wordmark" fill="#000" fill-rule="nonzero" d="M51.3411587,24.861394 C51.7933885,24.861394 52.1493077,25.0036723 52.4089163,25.2882289 C52.6769048,25.5811601 52.810899,25.961986 52.810899,26.4307066 C52.810899,26.8993952 52.6769048,27.2760274 52.4089163,27.5606032 C52.1493013,27.8535344 51.7933821,28 51.3411587,28 L51.3411587,27.9999328 C50.9308026,27.9999328 50.583244,27.8702067 50.2984831,27.6107547 C50.0221211,27.3513027 49.8839402,26.9579277 49.8839402,26.4306298 C49.8839402,25.8866148 50.0221211,25.4890781 50.2984831,25.2380198 C50.5832184,24.986936 50.930777,24.861394 51.3411587,24.861394 Z M60.2850386,22.2626895 C60.8126421,22.2626895 61.2271818,22.4258914 61.5286576,22.7522953 C61.8301462,23.0787056 61.9808906,23.534826 61.9808906,24.1206563 C61.9808906,24.7065187 61.8259595,25.1584773 61.5160974,25.4765322 C61.2062354,25.8029425 60.795892,25.9661477 60.2850674,25.9661477 C59.7574063,25.9661477 59.3386703,25.7987296 59.0288018,25.4639511 C58.7189397,25.1375472 58.5640087,24.6897823 58.5640087,24.1206563 C58.5640087,23.5431685 58.714753,23.0870482 59.0162416,22.7522953 C59.3261037,22.4258914 59.749036,22.2626895 60.2850386,22.2626895 Z M64.6565886,22.2626895 C65.1925655,22.2626895 65.6113015,22.4258914 65.9127966,22.7522953 C66.2142852,23.0870738 66.3650295,23.5431941 66.3650295,24.1206563 C66.3650295,24.6897823 66.2059117,25.1375472 65.8876762,25.4639511 C65.5778142,25.7987296 65.1674708,25.9661189 64.6566462,25.9661189 C64.1289562,25.9661189 63.7102202,25.7987296 63.4003518,25.4639511 C63.0904897,25.1375472 62.9355586,24.6897823 62.9355586,24.1206563 C62.9355586,23.5431685 63.086303,23.0870482 63.3877916,22.7522953 C63.6976537,22.4258914 64.120586,22.2626895 64.6565886,22.2626895 Z M37.4720633,22.2626895 C37.9996668,22.2626895 38.4142065,22.4258914 38.7156823,22.7522953 C39.0171709,23.0787056 39.1679153,23.534826 39.1679153,24.1206563 C39.1679153,24.7065187 39.0129842,25.1584773 38.7031222,25.4765322 C38.3932601,25.8029425 37.9829167,25.9661477 37.4720921,25.9661477 C36.944431,25.9661477 36.525695,25.7987296 36.2158265,25.4639511 C35.9059644,25.1375472 35.7510334,24.6897823 35.7510334,24.1206563 C35.7510334,23.5431685 35.9017777,23.0870482 36.2032663,22.7522953 C36.5131284,22.4258914 36.9360607,22.2626895 37.4720633,22.2626895 Z M41.8436133,22.2626895 C42.3795902,22.2626895 42.7983262,22.4258914 43.0998213,22.7522953 C43.4013099,23.0870738 43.5520542,23.5431941 43.5520542,24.1206563 C43.5520542,24.6897823 43.3929365,25.1375472 43.0747009,25.4639511 C42.7648389,25.7987296 42.3544955,25.9661189 41.8436709,25.9661189 C41.3159809,25.9661189 40.8972449,25.7987296 40.5873765,25.4639511 C40.2775144,25.1375472 40.1225834,24.6897823 40.1225834,24.1206563 C40.1225834,23.5431685 40.2733277,23.0870482 40.5748163,22.7522953 C40.8846784,22.4258914 41.3076107,22.2626895 41.8436133,22.2626895 Z M8.86930693,22.2626895 C9.39691044,22.2626895 9.8114501,22.4258914 10.1129259,22.7522953 C10.4144146,23.0787056 10.5651589,23.534826 10.5651589,24.1206563 C10.5651589,24.7065187 10.4102278,25.1584773 10.1003658,25.4765322 C9.79050369,25.8029425 9.38016036,25.9661477 8.86933576,25.9661477 C8.34167459,25.9661477 7.9229386,25.7987296 7.61307012,25.4639511 C7.30320805,25.1375472 7.14827701,24.6897823 7.14827701,24.1206563 C7.14827701,23.5431685 7.29902133,23.0870482 7.60050996,22.7522953 C7.91037203,22.4258914 8.33330436,22.2626895 8.86930693,22.2626895 Z M13.2408569,22.2626895 C13.7768338,22.2626895 14.1955698,22.4258914 14.4970649,22.7522953 C14.7985535,23.0870738 14.9492978,23.5431941 14.9492978,24.1206563 C14.9492978,24.6897823 14.7901801,25.1375472 14.4719446,25.4639511 C14.1620825,25.7987296 13.7517392,25.9661189 13.2409146,25.9661189 C12.7132246,25.9661189 12.2944886,25.7987296 11.9846201,25.4639511 C11.674758,25.1375472 11.519827,24.6897823 11.519827,24.1206563 C11.519827,23.5431685 11.6705713,23.0870482 11.9720599,22.7522953 C12.281922,22.4258914 12.7048543,22.2626895 13.2408569,22.2626895 Z M24.2693866,22.2585598 C24.7886167,22.2585598 25.19896,22.4217618 25.5004166,22.7481657 C25.8102787,23.074576 25.9652097,23.5306963 25.9652097,24.1165266 C25.9652097,24.6856526 25.806092,25.1334176 25.4878565,25.4598215 C25.1779944,25.7946 24.7718154,25.9619892 24.2693193,25.9619892 C23.7334769,25.9619892 23.3105446,25.7946 23.0006569,25.4598215 C22.6907948,25.1334176 22.5358638,24.6856526 22.5358638,24.1165266 C22.5358638,23.5390389 22.6866081,23.0829185 22.9880968,22.7481657 C23.2979588,22.4217618 23.7250554,22.2585598 24.2693866,22.2585598 Z M109,6.80736535 L109,19.61222 C109,21.56232 108.405403,23.0646231 107.216208,24.1191293 C106.035406,25.1820228 104.364658,25.7134696 102.203965,25.7134696 C101.039663,25.7137289 100.030526,25.6216661 99.1763325,25.4375405 C98.3304678,25.261783 97.5139455,24.9395728 96.7267654,24.4709098 L98.2216836,21.6713785 C98.9168007,22.0312615 99.574215,22.2823422 100.193926,22.4246205 C100.81365,22.5752734 101.458508,22.6505998 102.128498,22.6505998 C103.099996,22.6505998 103.849538,22.3827796 104.377122,21.8471391 C104.904725,21.3198605 105.168527,20.5917262 105.168527,19.6627364 L105.168527,19.5371945 L102.61844,19.5371945 C100.784356,19.5371945 99.3732364,19.0182968 98.385081,17.9805014 C97.3968615,16.942706 96.9027517,15.465501 96.9027517,13.5488865 C96.9027517,12.1930746 97.2419176,11.0046263 97.9202494,9.98354169 C98.5985812,8.95413369 99.5574905,8.16741577 100.796977,7.62338792 C102.0364,7.07937288 103.468469,6.80736535 105.093185,6.80736535 L109,6.80736535 Z M49.1554126,21.0574024 C49.6913895,21.0574024 50.1101255,21.2206076 50.4116206,21.5470179 C50.7131092,21.8817963 50.8638535,22.333755 50.8638535,22.9028938 C50.8638535,23.4803816 50.7047358,23.9323402 50.3865003,24.2587697 C50.0766382,24.5935418 49.6662948,24.7609278 49.1554702,24.7609278 C48.6277803,24.7609278 48.2090443,24.5935418 47.8991758,24.2587697 C47.5893137,23.9239912 47.4343827,23.4720326 47.4343827,22.9028938 C47.4343827,22.3337742 47.585127,21.8818156 47.8866156,21.5470179 C48.1881043,21.2206076 48.6110366,21.0574024 49.1554126,21.0574024 Z M53.5394554,21.0574696 C54.0586855,21.0574696 54.4690288,21.2206748 54.7704854,21.5470851 C55.0803475,21.873489 55.2352786,22.3254476 55.2352786,22.902961 C55.2352786,23.4804488 55.0761608,23.9324074 54.7579253,24.2588369 C54.4480632,24.593609 54.0418842,24.7609951 53.5393882,24.7609951 C53.0035458,24.7609278 52.5806134,24.5977259 52.2707257,24.271322 C51.9608637,23.9449117 51.8059326,23.4887914 51.8059326,22.902961 C51.8059326,22.3338414 51.9566769,21.8818828 52.2581656,21.5470851 C52.5596542,21.2206748 52.9867508,21.0574696 53.5394554,21.0574696 Z M81.1133456,2.02130004 L82.5203331,5.4737032 C81.0463645,5.91728086 79.6519659,6.57847606 78.3371375,7.4572888 C77.0307017,8.33610794 76.0843494,9.23163784 75.4980805,10.1438785 L85.7864547,10.1438785 C88.2234648,10.1438785 90.0533206,10.637678 91.276022,11.6252771 C92.5071161,12.6128762 93.1226631,14.0565957 93.1226631,15.9564354 L93.1226631,19.5343613 L68.5626862,19.5352195 C68.5514305,19.5373621 68.5391029,19.5384334 68.5257034,19.5384334 L34.0300515,19.5384334 L33.993,19.534 L18.477943,19.5343901 L18.477943,16.4460701 L18.4783274,16.4459837 L27.0707439,16.4459837 C26.7190082,14.8641604 26.2877152,13.5878366 25.776865,12.6170123 C25.2743818,11.6378006 24.6295246,10.7966607 23.8422932,10.0935926 C23.0634417,9.38220108 22.1087287,8.79217064 20.9781544,8.32350125 L22.4228128,4.72050923 C24.6839615,5.62442651 26.5054567,7.02211134 27.8872983,8.9135637 C29.2691399,10.8050801 30.2824733,13.3159188 30.9272985,16.4460797 L34.3064327,16.4460797 L34.3516561,16.4500968 L34.3516561,16.4500968 L38.0122078,16.4501229 L38.0122078,6.80878673 L41.8435845,6.80878673 L41.8435845,16.4501229 L49.4191759,16.4501229 L49.4191759,6.80878673 L53.2505526,6.80878673 L53.2505526,16.4501229 L60.8251831,16.4501229 L60.8251831,6.80878673 L64.6565597,6.80878673 L64.6565597,16.4501229 L68.124,16.45 L68.1241051,16.4459837 L89.2909021,16.4459837 C89.2909021,15.4081883 88.9349829,14.613083 88.2231445,14.0606677 C87.5113061,13.5082909 86.502169,13.2321025 85.1957332,13.2321025 L71.5160204,13.2321025 L71.5160204,10.4576373 C72.4288341,8.524312 73.710156,6.8295151 75.3599861,5.37324661 C77.0181447,3.90859072 78.9359312,2.79127519 81.1133456,2.02130004 Z M3.83137669,1.59872116e-14 L3.83137669,16.4456859 L7.04723837,16.4456859 L7.09255796,16.4500008 L7.09255796,16.4500008 L11.2936673,16.4501229 L11.2936673,6.80878673 L15.1250439,6.80878673 L15.1250439,19.5387311 L6.79641961,19.5387311 L6.76,19.534 L2.62900812e-13,19.5342941 L2.62900812e-13,1.59872116e-14 L3.83137669,1.59872116e-14 Z M105.168402,9.8954645 L104.339307,9.8954645 C103.242239,9.8954645 102.38385,10.2051352 101.764138,10.8244767 C101.152788,11.4438118 100.847112,12.3184052 100.847112,13.448257 C100.847112,14.477665 101.056477,15.2350911 101.475207,15.7205353 C101.893943,16.2059603 102.534603,16.4486727 103.397189,16.4486727 L105.168402,16.4486727 L105.168402,9.8954645 Z"/>
	</g>
</svg>

<svg xmlns="http://www.w3.org/2000/svg" width="109" height="28"><path fill="#000" fill-rule="nonzero" d="M51.341 24.861c.452 0 .808.143 1.068.427.268.293.402.674.402 1.143 0 .468-.134.845-.402 1.13-.26.293-.616.439-1.068.439-.41 0-.758-.13-1.043-.39-.276-.259-.414-.652-.414-1.18 0-.543.138-.94.414-1.192a1.52 1.52 0 0 1 1.043-.377zm8.944-2.598c.528 0 .942.163 1.244.49.301.326.452.782.452 1.368 0 .586-.155 1.037-.465 1.356-.31.326-.72.49-1.23.49-.529 0-.947-.168-1.257-.503-.31-.326-.465-.774-.465-1.343 0-.578.15-1.034.452-1.369.31-.326.733-.49 1.269-.49zm4.372 0c.536 0 .954.163 1.256.49.301.334.452.79.452 1.368 0 .569-.16 1.017-.477 1.343-.31.335-.72.502-1.231.502-.528 0-.947-.167-1.257-.502-.31-.326-.464-.774-.464-1.343 0-.578.15-1.034.452-1.369.31-.326.733-.49 1.269-.49zm-27.185 0c.528 0 .942.163 1.244.49.301.326.452.782.452 1.368 0 .586-.155 1.037-.465 1.356-.31.326-.72.49-1.23.49-.529 0-.947-.168-1.257-.503-.31-.326-.465-.774-.465-1.343 0-.578.15-1.034.452-1.369.31-.326.733-.49 1.27-.49zm4.372 0c.536 0 .954.163 1.256.49.301.334.452.79.452 1.368 0 .569-.16 1.017-.477 1.343-.31.335-.72.502-1.231.502-.528 0-.947-.167-1.257-.502-.31-.326-.464-.774-.464-1.343 0-.578.15-1.034.452-1.369.31-.326.733-.49 1.269-.49zm-32.975 0c.528 0 .942.163 1.244.49.301.326.452.782.452 1.368 0 .586-.155 1.037-.465 1.356-.31.326-.72.49-1.23.49-.528 0-.947-.168-1.257-.503-.31-.326-.465-.774-.465-1.343 0-.578.151-1.034.453-1.369.31-.326.732-.49 1.268-.49zm4.372 0c.536 0 .955.163 1.256.49.302.334.452.79.452 1.368 0 .569-.159 1.017-.477 1.343-.31.335-.72.502-1.231.502-.528 0-.947-.167-1.256-.502-.31-.326-.465-.774-.465-1.343 0-.578.15-1.034.452-1.369.31-.326.733-.49 1.269-.49zm11.028-.004c.52 0 .93.163 1.231.49.31.326.465.782.465 1.368 0 .569-.159 1.016-.477 1.343-.31.335-.716.502-1.219.502-.536 0-.958-.167-1.268-.502-.31-.327-.465-.774-.465-1.343 0-.578.15-1.034.452-1.369.31-.326.737-.49 1.281-.49zM109 6.807v12.805c0 1.95-.595 3.453-1.784 4.507-1.18 1.063-2.851 1.594-5.012 1.594-1.164 0-2.173-.091-3.028-.275a7.916 7.916 0 0 1-2.45-.967l1.496-2.8c.695.36 1.352.611 1.972.754.62.15 1.265.226 1.934.226.972 0 1.722-.268 2.25-.804.527-.527.79-1.255.79-2.184v-.126h-2.55c-1.834 0-3.245-.519-4.233-1.556-.988-1.038-1.482-2.515-1.482-4.432 0-1.356.339-2.544 1.017-3.565.679-1.03 1.637-1.817 2.877-2.36 1.24-.545 2.671-.817 4.296-.817H109zm-59.845 14.25c.536 0 .955.164 1.257.49.301.335.452.787.452 1.356 0 .577-.16 1.03-.477 1.356-.31.335-.72.502-1.232.502-.527 0-.946-.167-1.256-.502-.31-.335-.465-.787-.465-1.356 0-.57.151-1.021.453-1.356.301-.326.724-.49 1.268-.49zm4.384 0c.52 0 .93.164 1.231.49.31.326.465.778.465 1.356 0 .577-.159 1.03-.477 1.356-.31.335-.716.502-1.219.502-.535 0-.958-.163-1.268-.49-.31-.326-.465-.782-.465-1.368 0-.57.15-1.021.452-1.356.302-.326.729-.49 1.281-.49zM81.113 2.021l1.407 3.453a15.569 15.569 0 0 0-4.183 1.983c-1.306.88-2.253 1.775-2.839 2.687h10.288c2.437 0 4.267.494 5.49 1.481 1.231.988 1.847 2.432 1.847 4.331v3.578l-24.56.001a.198.198 0 0 1-.037.003H34.03l-.037-.004H18.478v-3.088h8.593c-.352-1.582-.783-2.858-1.294-3.829a8.627 8.627 0 0 0-1.935-2.523c-.779-.712-1.733-1.302-2.864-1.77l1.445-3.603c2.261.903 4.082 2.301 5.464 4.193 1.382 1.891 2.395 4.402 3.04 7.532h3.38l.045.004h3.66V6.81h3.832v9.641h7.575V6.81h3.832v9.641h7.574V6.81h3.832v9.641h3.467v-.004h21.167c0-1.038-.356-1.833-1.068-2.385-.712-.553-1.72-.829-3.027-.829h-13.68v-2.774a15.63 15.63 0 0 1 3.844-5.085c1.658-1.464 3.576-2.582 5.753-3.352zM3.831 0v16.446h3.216l.046.004h4.2V6.81h3.832v12.73H6.796l-.036-.005H0V0h3.831zm101.337 9.895h-.829c-1.097 0-1.955.31-2.575.93-.611.619-.917 1.493-.917 2.623 0 1.03.21 1.787.628 2.273.419.485 1.06.728 1.922.728h1.771V9.895z"/></svg>
